packages/nimble-tokens/assets-icons/CopyText_16x16.svg

<?xml version="1.0" encoding="iso-8859-1"?>
<!-- Generator: Adobe Illustrator 22.0.1, SVG Export Plug-In . SVG Version: 6.00 Build 0)  -->
<svg version="1.1" id="Layer_1" xmlns="http://www.w3.org/2000/svg" xmlns:xlink="http://www.w3.org/1999/xlink" x="0px" y="0px"
	 viewBox="0 0 16 16" style="enable-background:new 0 0 16 16;" xml:space="preserve">
<path style="opacity:0.7;" d="M4,5h7V0H1v11h3V5z M3,2h6v1H3V2z M5,6v10h10V6H5z M14,15H6V7h8V15z M13,10H7V9h6V10z M9,12H7v-1h2V12
	z"/>
</svg>

<svg id="Layer_1" data-name="Layer 1" xmlns="http://www.w3.org/2000/svg" viewBox="0 0 16 16"><path d="M4,5h7V0H1V11H4ZM3,2H9V3H3ZM5,6V16H15V6Zm9,9H6V7h8Zm-1-5H7V9h6ZM9,12H7V11H9Z" opacity="0.7"/></svg>
